static/logos/notion-wordmark-color.svg

<svg width="100" height="35" viewBox="0 0 100 35" fill="none" xmlns="http://www.w3.org/2000/svg">
<g clip-path="url(#clip0_1_1861)">
<path d="M2.07471 1.48735L21.1552 0.078148C23.4989 -0.123001 24.1011 0.0126308 25.5747 1.0839L31.6655 5.3747C32.6701 6.11263 33.0046 6.31378 33.0046 7.11723V30.6495C33.0046 32.1242 32.469 32.9966 30.5943 33.1299L8.43678 34.4713C7.02989 34.538 6.35977 34.3368 5.62299 33.3977L1.13793 27.5656C0.333333 26.492 0 25.6885 0 24.7495V3.83217C0 2.62643 0.535632 1.62068 2.07471 1.48735Z" fill="white"/>
<path fill-rule="evenodd" clip-rule="evenodd" d="M21.1552 0.078148L2.07471 1.48735C0.535632 1.62068 0 2.62643 0 3.83217V24.7495C0 25.6885 0.333333 26.492 1.13793 27.5656L5.62299 33.3977C6.35977 34.3368 7.02989 34.538 8.43678 34.4713L30.5943 33.1299C32.4678 32.9966 33.0046 32.1242 33.0046 30.6495V7.11723C33.0046 6.35516 32.7034 6.13562 31.8172 5.48505C31.7662 5.44831 31.7153 5.41153 31.6644 5.3747L25.5747 1.0839C24.1011 0.0126308 23.4989 -0.123001 21.1552 0.078148ZM8.93793 6.73217C7.12874 6.85401 6.71839 6.8816 5.6908 6.04597L3.07816 3.96781C2.81264 3.69884 2.94598 3.36321 3.61494 3.29654L21.9575 1.95631C23.4977 1.82183 24.3 2.35861 24.9023 2.82758L28.0483 5.10689C28.1828 5.1747 28.5172 5.57585 28.1149 5.57585L9.17241 6.71608L8.93793 6.73217ZM6.82874 30.4483V10.4713C6.82874 9.59884 7.09655 9.19654 7.89885 9.12873L29.6552 7.85516C30.3931 7.7885 30.7264 8.25746 30.7264 9.12873V28.9724C30.7264 29.8449 30.592 30.5828 29.3874 30.6495L8.56782 31.8564C7.36322 31.923 6.82874 31.5219 6.82874 30.4483ZM27.3805 11.5426C27.5138 12.146 27.3805 12.7495 26.777 12.8184L25.7736 13.0173V27.7667C24.9023 28.2357 24.1 28.5035 23.4299 28.5035C22.3586 28.5035 22.0908 28.1679 21.2885 27.1633L14.7264 16.8391V26.8276L16.8023 27.2977C16.8023 27.2977 16.8023 28.5046 15.1276 28.5046L10.5103 28.7724C10.3759 28.5035 10.5103 27.8334 10.9782 27.7L12.1839 27.3656V14.1587L10.5103 14.023C10.3759 13.4196 10.7103 12.5483 11.6483 12.4805L16.6023 12.1472L23.4299 22.6046V13.3529L21.6897 13.1529C21.5552 12.4138 22.0908 11.877 22.7598 11.8115L27.3805 11.5426Z" fill="black"/>
<path d="M47.6238 24.4264V15.3345H47.7812L54.3376 24.4264H56.4019V11.0656H54.1065V20.1483H53.949L47.3927 11.0656H45.3203V24.4253H47.6249L47.6238 24.4264ZM62.8893 24.631C65.918 24.631 67.7605 22.6494 67.7605 19.3621C67.7605 16.0839 65.9088 14.0931 62.8893 14.0931C59.8801 14.0931 58.0192 16.0931 58.0192 19.3621C58.0192 22.6494 59.8525 24.631 62.8893 24.631ZM62.8893 22.7046C61.2881 22.7046 60.372 21.4828 60.372 19.3621C60.372 17.2506 61.2881 16.0195 62.8893 16.0195C64.4824 16.0195 65.3985 17.2506 65.3985 19.3621C65.3985 21.4828 64.4916 22.7046 62.8893 22.7046ZM69.8582 11.8161V14.3621H68.2571V16.1954H69.8582V21.723C69.8582 23.6862 70.7847 24.4736 73.1088 24.4736C73.5525 24.4736 73.9789 24.4276 74.3123 24.3621V22.5655C74.0341 22.5931 73.8582 22.6115 73.5341 22.6115C72.572 22.6115 72.1456 22.1678 72.1456 21.1678V16.1954H74.3123V14.3621H72.1456V11.8149H69.8582V11.8161ZM75.6881 24.4264H77.9755V14.2966H75.6881V24.4264ZM76.8272 12.6218C77.5858 12.6218 78.1973 12.0092 78.1973 11.2414C78.1973 10.4725 77.587 9.85178 76.8272 9.85178C76.0778 9.85178 75.4571 10.4725 75.4571 11.2414C75.4571 12.0092 76.0778 12.6207 76.8272 12.6207V12.6218ZM84.2502 24.631C87.2778 24.631 89.1203 22.6494 89.1203 19.3621C89.1203 16.0839 87.2686 14.0931 84.2502 14.0931C81.2399 14.0931 79.3789 16.0931 79.3789 19.3621C79.3789 22.6494 81.2123 24.631 84.2502 24.631ZM84.2502 22.7046C82.6479 22.7046 81.7307 21.4828 81.7307 19.3621C81.7307 17.2506 82.6479 16.0195 84.2502 16.0195C85.8422 16.0195 86.7594 17.2506 86.7594 19.3621C86.7594 21.4828 85.8514 22.7046 84.2502 22.7046ZM90.487 24.4264H92.7835V18.5287C92.7835 17.0379 93.6456 16.0931 95.0146 16.0931C96.4134 16.0931 97.0605 16.8713 97.0605 18.4172V24.4264H99.3582V17.8713C99.3582 15.454 98.1261 14.0931 95.8674 14.0931C94.3571 14.0931 93.3387 14.7874 92.8571 15.9172H92.6996V14.2966H90.487V24.4264Z" fill="black"/>
</g>
<defs>
<clipPath id="clip0_1_1861">
<rect width="100" height="34.4828" fill="white"/>
</clipPath>
</defs>
</svg>

<svg xmlns="http://www.w3.org/2000/svg" width="182.857" height="64" fill="none" viewBox="0 0 100 35"><g clip-path="url(#a)"><path fill="#fff" d="M2.075 1.487 21.155.078c2.344-.201 2.946-.065 4.42 1.006l6.09 4.29c1.005.739 1.34.94 1.34 1.743V30.65c0 1.475-.536 2.348-2.41 2.48L8.436 34.472c-1.407.067-2.077-.134-2.814-1.073l-4.485-5.832C.333 26.492 0 25.689 0 24.75V3.832c0-1.206.536-2.211 2.075-2.345Z"/><path fill="#000" fill-rule="evenodd" d="m21.155.078-19.08 1.41C.535 1.62 0 2.625 0 3.831V24.75c0 .939.333 1.742 1.138 2.816l4.485 5.832c.737.939 1.407 1.14 2.814 1.073l22.157-1.341c1.874-.133 2.41-1.006 2.41-2.48V7.116c0-.762-.3-.981-1.187-1.632a90.044 90.044 0 0 1-.153-.11l-6.09-4.291C24.102.013 23.5-.123 21.156.078ZM8.938 6.732c-1.81.122-2.22.15-3.247-.686L3.078 3.968c-.265-.27-.132-.605.537-.671l18.342-1.34c1.54-.135 2.343.402 2.945.87l3.146 2.28c.135.068.47.469.067.469L9.172 6.716l-.234.016Zm-2.11 23.716V10.471c0-.872.269-1.274 1.07-1.342l21.757-1.274c.738-.067 1.071.402 1.071 1.274v19.843c0 .873-.134 1.61-1.339 1.677l-20.82 1.207c-1.204.067-1.738-.334-1.738-1.408Zm20.553-18.905c.133.603 0 1.207-.604 1.275l-1.003.2v14.749c-.872.469-1.674.736-2.344.736-1.071 0-1.34-.335-2.142-1.34L14.726 16.84v9.989l2.076.47s0 1.207-1.674 1.207l-4.618.267c-.134-.268 0-.939.468-1.072l1.206-.334V14.159l-1.674-.136c-.134-.603.2-1.475 1.138-1.543l4.954-.333 6.828 10.458v-9.252l-1.74-.2c-.135-.74.4-1.276 1.07-1.341l4.62-.27Z" clip-rule="evenodd"/><path fill="#000" d="M47.624 24.426v-9.091h.157l6.557 9.091h2.064v-13.36h-2.296v9.082h-.157l-6.556-9.082H45.32v13.36h2.305-.001Zm15.265.205c3.029 0 4.871-1.982 4.871-5.269 0-3.278-1.851-5.269-4.87-5.269-3.01 0-4.87 2-4.87 5.27 0 3.286 1.832 5.268 4.87 5.268Zm0-1.926c-1.6 0-2.517-1.222-2.517-3.343 0-2.111.916-3.342 2.517-3.342 1.593 0 2.51 1.23 2.51 3.342 0 2.12-.907 3.343-2.51 3.343Zm6.97-10.889v2.546h-1.602v1.833h1.601v5.528c0 1.963.927 2.75 3.25 2.75.444 0 .87-.045 1.204-.11v-1.797c-.278.027-.454.046-.778.046-.962 0-1.388-.444-1.388-1.444v-4.973h2.166v-1.833h-2.166v-2.547h-2.288v.001Zm5.83 12.61h2.287v-10.13h-2.288v10.13Zm1.138-11.804a1.37 1.37 0 0 0 1.37-1.38c0-.77-.61-1.39-1.37-1.39-.75 0-1.37.62-1.37 1.39 0 .767.62 1.379 1.37 1.379ZM84.25 24.63c3.028 0 4.87-1.982 4.87-5.269 0-3.278-1.851-5.269-4.87-5.269-3.01 0-4.871 2-4.871 5.27 0 3.286 1.833 5.268 4.871 5.268Zm0-1.926c-1.602 0-2.52-1.222-2.52-3.343 0-2.111.918-3.342 2.52-3.342 1.592 0 2.51 1.23 2.51 3.342 0 2.12-.909 3.343-2.51 3.343Zm6.237 1.721h2.297V18.53c0-1.491.862-2.436 2.23-2.436 1.4 0 2.047.778 2.047 2.324v6.01h2.297V17.87c0-2.417-1.232-3.778-3.49-3.778-1.51 0-2.53.694-3.01 1.824H92.7v-1.62h-2.213v10.13Z"/></g><defs><clipPath id="a"><path fill="#fff" d="M0 0h100v34.483H0z"/></clipPath></defs></svg>
